images/ICONOS/SERVICIOS/SOPORTE ICON.svg

<svg width="35" height="35" viewBox="0 0 35 35" fill="none" xmlns="http://www.w3.org/2000/svg">
<path d="M4.55755 35C3.34387 35 2.1963 34.5138 1.32659 33.6321C0.432083 32.7257 -0.0378932 31.5416 0.00239052 30.2976C0.04474 29.0113 0.624205 27.8086 1.63543 26.9105C6.80414 22.3154 12.1743 17.5573 18.0536 12.3645C18.504 11.9671 18.632 11.5294 18.4699 10.944C17.501 7.44639 18.3356 4.49488 20.9489 2.17208C22.5695 0.730909 24.3843 0 26.3407 0C27.481 0 28.6875 0.248798 29.9259 0.738135C30.2978 0.885762 30.5281 1.0912 30.5756 1.31626C30.6252 1.55473 30.4796 1.86753 30.1759 2.17414C29.1006 3.25915 28.0233 4.34209 26.946 5.42504C26.3242 6.04961 25.7034 6.67419 25.0826 7.2998C25.0186 7.3638 24.9638 7.42781 24.9153 7.48459C24.8967 7.50627 24.8771 7.52898 24.8585 7.54963L24.4887 7.9667L27.1701 10.5899L27.5802 10.1687C27.8456 9.89514 28.1142 9.61847 28.3848 9.3387C28.9973 8.70587 29.6316 8.05032 30.2658 7.40819C31.0673 6.59676 32.0145 5.6439 32.9658 4.7251C33.1631 4.53514 33.3697 4.43397 33.5628 4.43397C33.8304 4.43397 34.0772 4.63838 34.2404 4.99454C35.4324 7.59608 35.2114 10.6013 33.6486 13.0335C32.0806 15.475 29.4487 16.9317 26.6082 16.9327C26.3624 16.9327 26.1114 16.9214 25.8635 16.9007C25.2138 16.845 24.5579 16.6757 24.0579 16.5342C23.8947 16.4878 23.7501 16.4661 23.6148 16.4661C23.1428 16.4661 22.8505 16.7345 22.6728 16.9368C20.0719 19.8842 17.4173 22.8739 14.8505 25.7645L13.2599 27.5567C12.7506 28.1307 12.2414 28.7057 11.7332 29.2807C10.5309 30.6404 9.28726 32.0464 8.04983 33.4143C7.12124 34.4363 5.88174 35 4.55755 35ZM26.4564 1.43291C24.1096 1.43291 21.9291 2.6449 20.6245 4.67348C19.3262 6.69174 19.1351 9.17662 20.1143 11.3198C20.4458 12.0466 20.4273 12.1343 19.8282 12.666C17.4163 14.8092 15.0014 16.9503 12.5874 19.0914L11.0267 20.4758C10.1497 21.2531 9.2728 22.0295 8.39482 22.8058C6.45811 24.5205 4.45425 26.2931 2.49275 28.046C1.70567 28.7501 1.32142 29.7443 1.43814 30.7746C1.55486 31.8028 2.14982 32.6824 3.06808 33.1872C3.55252 33.4535 4.05555 33.5888 4.56168 33.5888C5.51506 33.5888 6.44778 33.1046 7.25965 32.1879C12.136 26.6854 17.0176 21.1881 22.4352 15.0879C22.7957 14.6822 22.9662 14.6822 23.0488 14.6822C23.1789 14.6822 23.3514 14.7328 23.5756 14.837C24.5331 15.2799 25.5422 15.505 26.5752 15.505C29.8981 15.505 32.7148 13.2152 33.4244 9.93747C33.5732 9.24992 33.693 8.42197 33.4575 7.49491L33.2096 6.52346L32.4845 7.21618C32.4132 7.28431 32.3481 7.34625 32.2862 7.4051C32.1601 7.52382 32.0506 7.62809 31.9443 7.73339C31.5497 8.12362 31.1572 8.51488 30.7636 8.90511C30.0106 9.65357 29.2329 10.4268 28.4623 11.1825C28.077 11.5603 27.5802 11.7689 27.0627 11.7689C26.5586 11.7689 26.0742 11.5696 25.6972 11.2083C25.0072 10.5476 24.3926 9.93334 23.8183 9.33044C23.0436 8.51694 23.0581 7.33799 23.8534 6.52656C24.8006 5.56131 25.6435 4.71374 26.4326 3.93638C26.728 3.64525 27.0441 3.35619 27.3777 3.05061C27.543 2.89989 27.7145 2.74297 27.8942 2.57573L28.7071 1.82108L27.6246 1.57538C27.5213 1.55163 27.4438 1.53305 27.3829 1.51756C27.2631 1.48763 27.1774 1.46698 27.072 1.45769C26.8664 1.44117 26.6599 1.43291 26.4564 1.43291Z" fill="url(#paint0_linear_1_1714)"/>
<defs>
<linearGradient id="paint0_linear_1_1714" x1="0" y1="35.0008" x2="35" y2="35.0008" gradientUnits="userSpaceOnUse">
<stop stop-color="#1723FF"/>
<stop offset="1" stop-color="#30E35E"/>
</linearGradient>
</defs>
</svg>

<svg xmlns="http://www.w3.org/2000/svg" width="35" height="35" fill="none"><path fill="url(#a)" d="M4.558 35a4.515 4.515 0 0 1-3.231-1.368 4.505 4.505 0 0 1-1.325-3.334c.043-1.287.622-2.49 1.633-3.387a6718.394 6718.394 0 0 1 16.419-14.547c.45-.397.578-.835.416-1.42-.969-3.498-.134-6.45 2.479-8.772C22.569.731 24.384 0 26.34 0c1.14 0 2.346.249 3.585.738.372.148.602.353.65.578.05.239-.096.552-.4.858-1.075 1.085-2.153 2.168-3.23 3.251L25.083 7.3a3.111 3.111 0 0 0-.168.185 3.668 3.668 0 0 1-.056.065l-.37.417 2.681 2.623.41-.421.805-.83c.612-.633 1.247-1.289 1.88-1.93.802-.812 1.75-1.765 2.7-2.684.198-.19.405-.291.598-.291.267 0 .514.204.677.56 1.192 2.602.971 5.607-.591 8.04-1.568 2.441-4.2 3.898-7.04 3.899-.247 0-.498-.012-.746-.032-.65-.056-1.305-.225-1.805-.367a1.612 1.612 0 0 0-.443-.068c-.472 0-.764.268-.942.47-2.601 2.948-5.256 5.938-7.822 8.829l-1.591 1.792c-.51.574-1.019 1.149-1.527 1.724a491.89 491.89 0 0 1-3.683 4.133C7.12 34.436 5.882 35 4.558 35ZM26.456 1.433c-2.346 0-4.527 1.212-5.831 3.24-1.299 2.019-1.49 4.504-.51 6.647.33.727.312.814-.287 1.346-2.412 2.143-4.827 4.284-7.24 6.425l-1.561 1.385-2.632 2.33c-1.937 1.714-3.94 3.487-5.902 5.24a3.15 3.15 0 0 0-1.055 2.729 3.132 3.132 0 0 0 1.63 2.412c.485.267.988.402 1.494.402.953 0 1.886-.484 2.698-1.401 4.876-5.503 9.758-11 15.175-17.1.36-.406.531-.406.614-.406.13 0 .302.05.527.155a7.1 7.1 0 0 0 3 .668c3.322 0 6.139-2.29 6.848-5.568.15-.687.269-1.515.034-2.442l-.248-.972-.726.693-.198.19c-.126.118-.235.222-.342.327l-1.18 1.172c-.753.749-1.531 1.522-2.302 2.277a1.996 1.996 0 0 1-1.4.587c-.503 0-.988-.2-1.365-.56a57.44 57.44 0 0 1-1.879-1.879c-.774-.813-.76-1.992.035-2.803.948-.966 1.79-1.813 2.58-2.59.295-.292.611-.58.945-.886.165-.151.337-.308.516-.475l.813-.755-1.082-.246c-.104-.023-.181-.042-.242-.057-.12-.03-.206-.051-.311-.06a7.708 7.708 0 0 0-.616-.025Z"/><defs><linearGradient id="a" x1="0" x2="35" y1="35.001" y2="35.001" gradientUnits="userSpaceOnUse"><stop stop-color="#1723FF"/><stop offset="1" stop-color="#30E35E"/></linearGradient></defs></svg>
